libs/icons/src/svg/add-small.svg

<svg width="16" height="16" viewBox="0 0 16 16" fill="none" xmlns="http://www.w3.org/2000/svg">
<path d="M12.375 7.37498H8.625V3.62498C8.625 3.24998 8.375 2.99998 8 2.99998C7.625 2.99998 7.375 3.24998 7.375 3.62498V7.37498H3.625C3.25 7.37498 3 7.62498 3 7.99998C3 8.37498 3.25 8.62498 3.625 8.62498H7.375V12.375C7.375 12.75 7.625 13 8 13C8.375 13 8.625 12.75 8.625 12.375V8.62498H12.375C12.75 8.62498 13 8.37498 13 7.99998C13 7.62498 12.75 7.37498 12.375 7.37498Z" fill="#202327"/>
</svg>

<svg xmlns="http://www.w3.org/2000/svg" viewBox="0 0 16 16" class="sageicon"><path d="M12.375 7.375h-3.75v-3.75C8.625 3.25 8.375 3 8 3s-.625.25-.625.625v3.75h-3.75C3.25 7.375 3 7.625 3 8s.25.625.625.625h3.75v3.75c0 .375.25.625.625.625s.625-.25.625-.625v-3.75h3.75c.375 0 .625-.25.625-.625s-.25-.625-.625-.625Z"/></svg>
